X:1
T:Balm, LM
T:William Batchelder Bradbury (1816-1868)
T:Balm, LM
T:Public Domain
C:William Batchelder Bradbury (1816-1868)
Z:Public Domain
%%score ( 1 2 ) ( 3 4 )
L:1/8
M:4/4
K:Ab
V:1 treble 
V:2 treble 
V:3 bass 
V:4 bass 
V:1
 [CE]4 [EA]2 [CE]2 | [DF]4 [DF]4 | (C2 B,2) (D2 C2) | [CE]6 [EA]2 | [=DA]4 [DA]4 | (G4 A2) [CF]2 | %6
 [B,E]4 [B,F]4 | [B,E]6 z2 | [CE]4 [EA]2 [CE]2 | [DF]6 [DF]2 | [=DF]4 (B2 F2) | (A2 G2) (F2 E2) | %12
 [CE]2 [EA]2 (A2 c2) | (c2 B2) (d2 B2) | [EA]4 [DG]4 | [CA]8 |] %16
V:2
 x8 | x8 | E4 E4 | x8 | x8 | E6 x2 | x8 | x8 | x8 | x8 | x4 =D4 | E4 B,4 | x4 E4 | F4 F4 | x8 | %15
 x8 |] %16
V:3
 [A,,A,]4 [C,A,]2 [A,,A,]2 | [D,A,]4 [D,A,]4 | (A,2 G,2) (B,2 A,2) | [A,,A,]6 [A,C]2 | %4
 [F,B,]4 [F,B,]4 | ([E,B,]4 [C,A,]2) [A,,A,]2 | [B,,G,]4 F,2 A,2 | [E,G,]6 z2 | %8
 [A,,A,]4 [C,A,]2 [A,,A,]2 | [D,A,]6 [D,A,]2 | [B,,B,]4 (F,2 B,2) | [E,B,]4 [D,G,]4 | %12
 [C,A,]4 [A,,C]4 | [D,A,]4 (B,2 D2) | [E,C]4 [E,B,]4 | [A,,A,]8 |] %16
V:4
 x8 | x8 | E,4 E,4 | x8 | x8 | x8 | x4 B,,4 | x8 | x8 | x8 | x4 B,,4 | x8 | x8 | x4 D,4 | x8 | %15
 x8 |] %16

